public/dist/images/ico-insta.svg

<?xml version="1.0" encoding="UTF-8" standalone="no"?>
<svg width="50px" height="50px" viewBox="0 0 50 50" version="1.1" xmlns="http://www.w3.org/2000/svg" xmlns:xlink="http://www.w3.org/1999/xlink" xmlns:sketch="http://www.bohemiancoding.com/sketch/ns">
    <!-- Generator: Sketch 3.2.2 (9983) - http://www.bohemiancoding.com/sketch -->
    <title>Path 138 + инста</title>
    <desc>Created with Sketch.</desc>
    <defs></defs>
    <g id="Welcome" stroke="none" stroke-width="1" fill="none" fill-rule="evenodd" sketch:type="MSPage">
        <g id="Home-4" sketch:type="MSArtboardGroup" transform="translate(-1011.000000, -2531.000000)">
            <g id="подвал" sketch:type="MSLayerGroup" transform="translate(57.000000, 2504.000000)">
                <g id="сети" transform="translate(807.000000, 26.000000)" sketch:type="MSShapeGroup">
                    <g id="Path-138-+-инста" transform="translate(147.000000, 1.000000)">
                        <path d="M1.76422888,20.5665019 C10.3713404,-9.51226264 36.6488547,-2.95832765 46.5268458,17.3955708 C56.4048368,37.7494693 42.7279713,51.1976714 30.2203937,49.9366644 C17.712816,48.6756573 -6.84288269,50.6452665 1.76422888,20.5665019 Z" id="Path-138" fill="#415C71"></path>
                        <path d="M33.4814001,31.6132301 C33.4963746,31.5368388 33.5073559,31.4592194 33.5200843,31.3825825 L33.5200843,17.6174175 C33.5078551,17.5420087 33.4973729,17.4663544 33.4823984,17.3911913 C33.3294088,16.6201553 32.6832585,16.0217981 31.8898588,15.9149485 C31.8569149,15.9107728 31.8247197,15.9036495 31.7922749,15.898 L17.7678936,15.898 C17.6832876,15.9129835 17.5981825,15.9242825 17.5148243,15.9429505 C16.7403924,16.1166117 16.1673676,16.7304437 16.0570554,17.5027078 C16.052563,17.5348854 16.0458245,17.5668175 16.0400843,17.5989951 L16.0400843,31.4017417 C16.0560571,31.4891864 16.0687854,31.577368 16.0887514,31.6643214 C16.2599601,32.409566 16.9063599,32.9872903 17.6753012,33.0845602 C17.7124879,33.0889816 17.7499242,33.0961049 17.7871109,33.102 L31.7730576,33.102 C31.863903,33.0867709 31.954998,33.0742437 32.0448451,33.0550845 C32.7586302,32.9059864 33.3418876,32.3199107 33.4814001,31.6132301 Z M17.9313654,30.557999 C17.9313654,30.924235 18.253567,31.239134 18.6256837,31.239134 C22.7277023,31.2393796 26.8294713,31.2393796 30.9314899,31.239134 C31.3071007,31.239134 31.6275553,30.9247262 31.6275553,30.5557883 C31.6278048,28.0127699 31.6275553,25.4699971 31.6275553,22.9272243 L31.6275553,22.8744136 L29.9588952,22.8744136 C30.1944942,23.6154825 30.2668711,24.3693243 30.1745282,25.1376583 C30.0816862,25.9062379 29.8301144,26.6215155 29.4203119,27.2820175 C29.0102597,27.9432563 28.4786645,28.4910136 27.8277723,28.9270087 C26.1406437,30.0578942 23.9194241,30.1573748 22.1292209,29.1684641 C21.2242611,28.6690961 20.5137204,27.972732 20.0183135,27.0754417 C19.2793213,25.7365068 19.1612722,24.3312515 19.5947844,22.8731854 C19.0412265,22.8736767 18.4899148,22.8736767 17.9311158,22.8736767 L17.9311158,22.920101 C17.9311158,25.466067 17.9308663,28.012033 17.9313654,30.557999 Z M24.6988475,27.9842767 C26.6779792,28.026034 28.2787547,26.4697155 28.3204338,24.5768825 C28.3631112,22.6248524 26.7633339,21.0125301 24.7802091,21.0137583 C22.8415086,21.0125301 21.265441,22.5477243 21.2382373,24.4471893 C21.2102849,26.3977456 22.7968347,27.9439932 24.6988475,27.9842767 Z M31.6273057,19.6242233 C31.6275553,19.081133 31.6275553,18.5377971 31.6273057,17.9947068 C31.6273057,17.6051359 31.3140888,17.2951495 30.9187616,17.2949039 C30.3684482,17.2946583 29.8181348,17.2944126 29.2675718,17.2949039 C28.8732429,17.2953951 28.5590277,17.6061184 28.5587781,17.9956893 C28.5585286,18.5341126 28.5570311,19.0725359 28.5607747,19.6112049 C28.5612739,19.6915262 28.5767476,19.7750408 28.6027034,19.8511864 C28.7015352,20.1378379 28.9683311,20.3137097 29.2950251,20.3151835 C29.5605731,20.3156748 29.8261212,20.3149379 30.0919188,20.3149379 C30.3794295,20.3117447 30.6679385,20.3171485 30.9556987,20.3102709 C31.3258188,20.3011825 31.6273057,19.9889854 31.6273057,19.6242233 Z" id="инста" fill="#FFFFFF"></path>
                    </g>
                </g>
            </g>
        </g>
    </g>
</svg>

<svg width="50" height="50" viewBox="0 0 50 50" xmlns="http://www.w3.org/2000/svg"><title>Path 138 + инста</title><desc>Created with Sketch.</desc><g fill="none"><path d="M1.764 20.567c8.607-30.08 34.885-23.525 44.763-3.17 9.878 20.352-3.8 33.8-16.307 32.54-12.507-1.26-37.063.708-28.456-29.37z" fill="#415C71"/><path d="M33.48 31.613c.016-.076.027-.154.04-.23V17.617c-.012-.075-.023-.15-.038-.226-.153-.77-.8-1.368-1.592-1.475-.033-.004-.065-.01-.098-.017H17.768c-.085.015-.17.026-.253.045-.775.174-1.348.787-1.458 1.56-.004.032-.01.064-.017.096V31.4c.016.087.03.175.05.262.17.746.816 1.323 1.585 1.42l.112.018h13.986c.09-.015.182-.028.272-.047.714-.15 1.297-.735 1.436-1.442zm-15.55-1.055c0 .366.324.68.696.68H30.93c.377 0 .698-.313.698-.682V22.874h-1.67c.236.74.31 1.495.217 2.264-.093.768-.345 1.484-.755 2.144-.41.66-.94 1.21-1.592 1.645-1.687 1.13-3.91 1.23-5.7.24-.904-.498-1.614-1.194-2.11-2.092-.74-1.338-.857-2.744-.423-4.202H17.93v7.685zm6.77-2.574c1.978.042 3.58-1.514 3.62-3.407.043-1.952-1.557-3.564-3.54-3.563-1.938 0-3.515 1.534-3.542 3.433-.028 1.95 1.56 3.497 3.46 3.537zm6.927-8.36v-1.63c0-.39-.313-.7-.708-.7h-1.652c-.395 0-.71.312-.71.702 0 .538 0 1.077.003 1.615 0 .082.017.165.043.24.1.288.365.464.692.465h.797c.287-.003.576.002.864-.005.37-.01.67-.32.67-.686z" fill="#fff"/></g></svg>
